X:1
T:25 Lieder
T:An eine Blume
T:22. An eine Blume 
T:Corona Elisabeth Wilhelmine Schröter
T:Johann Gottfried Herder
T:25 Lieder
T:NOTES TO TRANSCRIBER: 1. Full German text for the extra lyric verses of An eine Blume is available on Lieder.net: https://www.lieder.net/lieder/get_text.html?TextId=72324 2. Please transcribe into the Soprano clef, as published in the original IMSLP edition: the reviewer will convert staves to Treble clef before the score is published to the Lieder Corpus. 3. System breaks have been changed deliberately, to achieve a more balanced layout. 4. For a discussion about dynamic marks in 25 Lieder , see a thread on the MuseScore forum: https://musescore.org/en/node/302302 
T:Creative Commons copyright waiver (CC0 1.0 Universal)
C:Corona Elisabeth Wilhelmine Schröter
Z:Johann Gottfried Herder
Z:Creative Commons copyright waiver (CC0 1.0 Universal)
L:1/8
M:6/8
K:F
V:1 alto1 nm="Singstimme\nVoice"
V:1
 C2 C F G A | B2 A{A} G2 F | C2 C F G A | B2 A{A} G2 F | z A B c d e | f2 e{e} d2 c | B2 G (AG) F | %7
w: Dass der Him- mel dich|schön ge- schmü- cket,|dass die Son- ne dein|Kleid ge- sti- cket,|dass du pran- gest vor|Gold und Sei- den,|kann mein Rös- * chen|
 (FG) E F2 F |] %8
w: ger- * ne lei- den,|

